X: 1
T: Dal Jerks G\aangl\aat
Z: John Chambers <jc@trillian.mit.edu>
M: 2/4
K: D
L: 1/8
|: A/d/ \
|| "D"fa a/b/a/^g/ | ab/a/ g/f/e/c/ | d>f f/g/f/e/ \
| fg/f/ e/d/c/B/ | "G"B/d/B/G/ B/d/B/G/ |
| "G"Bg/f/ e/d/c/B/ | "D"BA D/F/A/F/ | D/F/A/F/ A/B/A/G/ \
| F/D/F/A/ de/f/ | "A7"gg/e/ c/A/B/c/ | "D"d3 :|
|: (D || "D"D/)F/A/F/ D/F/A/F/ | AB/A/ G/F/E/D/ \
| "A7"D>C C/D/C/B,/ | C2 A,/C/E/F/ | "G"G>B BB |
|1 B>B "(A7)"AA/G/ | "D"G>F "A7"F/G/F/E/ | "D"F3 :|2 "G"B>B "A7"AA/E/ \
| "D"E>D "A7"D/E/D/C/ | "D"D3 A/d/ |: "D"fa a/b/a/^g/ |
| ab/a/ g/f/e/d/ | "A7"d>c c/d/c/B/ | c>B A/c/e/f/ \
| "G"g>b bb | b2 "A7"aa/e/ | "D"gf f/g/f/e/ |
| f/d/A/F/ D/F/A/d/ | "D"fa a/b/a/^g/ | ab/a/ g/f/e/d/ \
| "G"c>B B/d/B/G/ | "Em"B3 A/G/ | "D"FA df \
| a/b/a/f/ "A7"ge/c/ | "D"d>d "A7"c/d/e/c/ | "D"d3 :|
